X: 10153
M: 3/8
L: 1/16
K: A
!p!e2 |\
(fe)(^de)=dB "_fz."| A2EAce "_fz."|\
{c}d2(GBd)f "_fz."| {f}e2EAce !f!|\
(fe)(^de)=dB | A2(EA)ce |\
d2G2G2 | A4 :|
|: !p!A2 |\
{e}d2(GBd)f | {f}e2(EAc)e |\
(fe)(^de)=dB | A2(EA)ce |\
d2(EGB)G | A4 :|
|: !ff!E2 |\
d2d2d2 | c4"^8va("E2 |\
d2d2d2 | "8va)"A4 :|
|: c2 |\
d2(fd)Bd | c2(ec)Ac |\
d2(fd)Bd | c2(ec)Ac |\


